X:0006
T:The Oyster Wives rant.
T:Muillean Dubh
T:The Black Mull
T:The Black Mill
M:C|
L:1/8
Q:1/2=104
I: :: ::
%% G  A  B  d  e ^f  g  a
Z:Jack Campin * www.campin.me.uk * 2009
K:A Dorian
d|e2ed eAAB|d>edB GABd |e2ed efge|dBgB A2A:|
d|edef gage|d>edB d>edB|edef gage|dBgB A2A:|
<end>
<start>
